build/flags/Andorra.svg

<svg xmlns="http://www.w3.org/2000/svg" fill="none" viewBox="0 0 28 28" focusable="false"><defs><filter id="Andorra_svg__a"><feColorMatrix values="0 0 0 0 1 0 0 0 0 1 0 0 0 0 1 0 0 0 1 0"/></filter></defs><mask id="Andorra_svg__b" width="28" height="20" x="0" y="4" maskUnits="userSpaceOnUse"><g filter="url(#Andorra_svg__a)"><rect width="28" height="20" y="4" fill="#FFF" rx="3"/><rect width="28" height="20" y="4" stroke="#969696" stroke-opacity="0" stroke-width="0" rx="3"/></g></mask><path fill="none" d="M0 0H28V28H0z"/><rect width="28" height="20" y="4" fill="#FFF" rx="3"/><rect width="28" height="20" y="4" rx="3"/><g mask="url(#Andorra_svg__b)"><path fill="#1537D1" d="M0 4H28V24H0z"/><path d="M0 4H28V24H0z"/><path fill="#EA3058" d="M13.333 4H28V24H13.333z"/><path d="M13.333 4H28V24H13.333z"/><path fill="#FFCF3C" fill-rule="evenodd" d="M9.33337 24L18.6667 24L18.6667 4L9.33337 4L9.33337 24Z"/><path d="M18.6667 24L18.6667 4L9.33337 4L9.33337 24L18.6667 24Z"/><path fill="#FFEDB0" fill-rule="evenodd" d="M12.6666 12.6666L14 12.6666L14 13.3333L12.6666 13.3333L12.6666 12.6666Z"/><path d="M14 12.6666L14 13.3333L12.6666 13.3333L12.6666 12.6666L14 12.6666Z"/><path fill="none" d="M12.0601 12.722C12.0277 12.3334 12.3345 12 12.7245 12L15.2754 12C15.6655 12 15.9722 12.3334 15.9398 12.722L15.7685 14.7774C15.7109 15.4684 15.1332 16 14.4398 16L13.5601 16C12.8667 16 12.289 15.4685 12.2314 14.7774L12.0601 12.722Z"/><path fill="#D32E28" fill-rule="evenodd" d="M12.7245 12C12.3345 12 12.0277 12.3334 12.0601 12.722L12.2314 14.7774C12.289 15.4685 12.8667 16 13.5601 16L14.4398 16C15.1332 16 15.7109 15.4684 15.7685 14.7774L15.9398 12.722C15.9722 12.3334 15.6655 12 15.2754 12L12.7245 12ZM12.7245 12.6667L15.2754 12.6667L15.1041 14.722C15.0969 14.8084 15.0756 14.8879 15.0401 14.9604C15.0046 15.0329 14.955 15.0986 14.8912 15.1573C14.8274 15.2159 14.7579 15.26 14.6827 15.2893C14.6074 15.3187 14.5265 15.3333 14.4398 15.3333L13.5601 15.3333C13.4735 15.3333 13.3925 15.3187 13.3173 15.2893C13.242 15.26 13.1725 15.2159 13.1087 15.1573C13.0449 15.0986 12.9953 15.0329 12.9598 14.9604C12.9243 14.8879 12.903 14.8084 12.8958 14.722L12.7245 12.6667Z"/><path fill="#D32E28" fill-rule="evenodd" d="M12.6666 13.3333L15.3333 13.3333L15.3333 14L14.6666 14L13.3333 14L12.6666 14L12.6666 13.3333Z"/><path d="M15.3333 13.3333L15.3333 14L14.6666 14L13.3333 14L12.6666 14L12.6666 13.3333L15.3333 13.3333Z"/></g></svg>

<svg xmlns="http://www.w3.org/2000/svg" fill="none" viewBox="0 0 29 28" focusable="false"><path fill="none" d="M0 0h28v28H0z"/><rect width="28" height="20" y="4" fill="#FFF" rx="3"/><rect width="28" height="20" y="4" rx="3"/><mask id="Andorra_svg__a" width="28" height="20" x="0" y="4" mask-type="alpha" maskUnits="userSpaceOnUse"><rect width="28" height="20" y="4" fill="#FFF" rx="3"/><rect width="28" height="20" y="4" stroke="#979797" stroke-opacity="0" stroke-width="0" rx="3"/></mask><g mask="url(#Andorra_svg__a)"><path fill="#1537D1" d="M0 4h28v20H0z"/><path d="M0 4h28v20H0z"/></g><g mask="url(#Andorra_svg__a)"><path fill="#EA3058" d="M13.333 4H28v20H13.333z"/><path d="M13.333 4H28v20H13.333z"/></g><g mask="url(#Andorra_svg__a)"><path fill="#FFCF3C" fill-rule="evenodd" d="M9.33 24h9.33V4H9.33z"/><path d="M18.66 24V4H9.33v20z"/></g><g mask="url(#Andorra_svg__a)"><path fill="#FFEDB1" fill-rule="evenodd" d="M12.66 12.66h1.33v.67h-1.33z"/><path d="M13.99 12.66v.67h-1.33v-.67z"/></g><g mask="url(#Andorra_svg__a)"><path fill="none" d="M12.06 12.72c-.04-.39.27-.72.66-.72h2.55c.39 0 .7.33.66.72l-.17 2.05c-.05.69-.63 1.23-1.33 1.23h-.87c-.7 0-1.28-.54-1.33-1.23z"/><path fill="#D32E28" fill-rule="evenodd" d="M12.06 12.72c-.04-.39.27-.72.66-.72h2.55c.39 0 .7.33.66.72l-.17 2.05c-.05.69-.63 1.23-1.33 1.23h-.87c-.7 0-1.28-.54-1.33-1.23zm.66-.06h2.55l-.17 2.06q-.01.13-.06.24-.06.1-.15.19-.1.09-.21.13-.12.05-.25.05h-.87q-.13 0-.25-.05-.11-.04-.21-.13-.09-.09-.15-.19-.05-.11-.06-.24z"/></g><g mask="url(#Andorra_svg__a)"><path fill="#D32E28" fill-rule="evenodd" d="M12.66 13.33h2.67V14h-2.67z"/><path d="M15.33 13.33V14h-2.67v-.67z"/></g></svg>
